sources/images/svg/i-1.svg

<?xml version="1.0" encoding="UTF-8" standalone="no"?>
<svg width="46px" height="38px" viewBox="0 0 46 38" version="1.1" xmlns="http://www.w3.org/2000/svg" xmlns:xlink="http://www.w3.org/1999/xlink" xmlns:sketch="http://www.bohemiancoding.com/sketch/ns">
    <!-- Generator: Sketch 3.0.4 (8053) - http://www.bohemiancoding.com/sketch -->
    <title>i-1</title>
    <desc>Created with Sketch.</desc>
    <defs></defs>
    <g id="Page-1" stroke="none" stroke-width="1" fill="none" fill-rule="evenodd" sketch:type="MSPage">
        <g id="i-1" sketch:type="MSLayerGroup" transform="translate(1.000000, 1.000000)" fill="#63B1FF">
            <path d="M18.1314286,25.2879245 C14.2778571,25.2879245 11.1428571,22.1410943 11.1428571,18.2729811 C11.1428571,14.4048679 14.2778571,11.2587547 18.1314286,11.2587547 C21.985,11.2587547 25.12,14.4048679 25.12,18.2729811 C25.12,22.1410943 21.985,25.2879245 18.1314286,25.2879245 L18.1314286,25.2879245 Z M18.1314286,13.9001132 C15.7292857,13.9001132 13.775,15.8624906 13.775,18.2729811 C13.775,20.6841887 15.7292857,22.6458491 18.1314286,22.6458491 C20.5335714,22.6458491 22.4878571,20.6841887 22.4878571,18.2729811 C22.4878571,15.8624906 20.5335714,13.9001132 18.1314286,13.9001132 L18.1314286,13.9001132 Z" id="Fill-1" sketch:type="MSShapeGroup"></path>
            <path d="M30.5021429,9.85992453 L44.1085714,9.85992453 L44.1085714,26.1906038 L30.5021429,26.1906038 L30.5021429,9.85992453 Z M33.1342857,23.5492453 L41.4771429,23.5492453 L41.4771429,12.502 L33.1342857,12.502 L33.1342857,23.5492453 Z" id="Fill-2" sketch:type="MSShapeGroup"></path>
            <path d="M26.9992857,12.8138868 L31.9185714,12.8138868 L31.9185714,15.5011321 L26.9992857,15.5011321 L26.9992857,12.8138868 Z" id="Fill-3" sketch:type="MSShapeGroup"></path>
            <path d="M26.9992857,20.4088679 L31.9185714,20.4088679 L31.9185714,23.0961132 L26.9992857,23.0961132 L26.9992857,20.4088679 Z" id="Fill-4" sketch:type="MSShapeGroup"></path>
            <path d="M18.1314286,36.7589057 C7.97642857,36.7589057 -0.285,28.4663019 -0.285,18.2729811 C-0.285,8.08037736 7.97642857,-0.212226415 18.1314286,-0.212226415 C24.2321429,-0.212226415 29.8878571,2.79909434 33.3371429,7.86241509 L29.8535714,7.86241509 C26.8742857,4.48615094 22.6071429,2.55101887 18.1314286,2.55101887 C9.49428571,2.55101887 2.46857143,9.60396226 2.46857143,18.2729811 C2.46857143,26.942717 9.49428571,33.9956604 18.1314286,33.9956604 C22.89,33.9956604 27.3292857,31.8554717 30.3278571,28.121434 L33.71,28.121434 C30.3057143,33.5367925 24.5085714,36.7589057 18.1314286,36.7589057" id="Fill-5" sketch:type="MSShapeGroup"></path>
        </g>
    </g>
</svg>

<svg width="46" height="38" viewBox="0 0 46 38" xmlns="http://www.w3.org/2000/svg"><g id="i-1" transform="translate(1 1)" fill="#63B1FF" fill-rule="evenodd"><path d="M18.13 25.288c-3.852 0-6.987-3.147-6.987-7.015s3.135-7.014 6.988-7.014c3.856 0 6.99 3.144 6.99 7.012s-3.134 7.015-6.99 7.015zm0-11.388c-2.4 0-4.355 1.962-4.355 4.373 0 2.41 1.954 4.373 4.356 4.373 2.405 0 4.36-1.962 4.36-4.373 0-2.41-1.955-4.373-4.358-4.373z" id="Fill-1"/><path d="M30.502 9.86H44.11v16.33H30.5V9.86zm2.632 13.69h8.343V12.5h-8.343v11.05z" id="Fill-2"/><path d="M27 12.814h4.92V15.5H27v-2.686z" id="Fill-3"/><path d="M27 20.41h4.92v2.686H27V20.41z" id="Fill-4"/><path d="M18.13 36.76C7.977 36.76-.284 28.465-.284 18.272-.284 8.08 7.976-.212 18.13-.212c6.102 0 11.758 3.01 15.207 8.074h-3.483c-2.98-3.376-7.247-5.31-11.723-5.31-8.635 0-15.66 7.052-15.66 15.72 0 8.67 7.025 15.724 15.66 15.724 4.76 0 9.2-2.14 12.2-5.875h3.38c-3.403 5.418-9.2 8.64-15.58 8.64" id="Fill-5"/></g></svg>
